X: 5
T: Los set gotxs
B: Llibre Vermeil
H: 14th Century
F:http://www.cervantesvirtual.com/s3/BVMC_OBRAS/ff6/fe3/e28/2b1/11d/fac/c70/021/85c/e60/64/mimes/imagenes/ff6fe3e2-82b1-11df-acc7-002185ce6064_109.jpg
F:http://www.cervantesvirtual.com/s3/BVMC_OBRAS/ff6/fe3/e28/2b1/11d/fac/c70/021/85c/e60/64/mimes/imagenes/ff6fe3e2-82b1-11df-acc7-002185ce6064_25.jpg
Z:Ali Corbin <ali.corbin:gmail.com>
N: 
M:2/4
L: 1/4
Q: 1/4=180
K: D Dorian
%%MIDI program 74
   c (B/A/)| B    c| d (c/B/)|A2 |(B/A/G/) F/|E  D|(E/D/E/) F/| E z |
w:Los set* gotxs re-comp-ta-*rem   Et**   de-vo-ta- ment** xan-tant
   c (B/A/)| B    c| d (c/B/)|A2 |(B/A/G/) F/|E  D|(E/D/E/) F/| E D ||
w:Hu- mil-* ment sa-lu- da-* rem   La**   dol-ca ver-ge**  Ma- ri-a.
M:3/4
   G>G  A |F E (F/E/)|F/ G/  A   E| G > G  A | F (E/D/) (E/D/)|E/ C/  D D||
w:Av-e Ma-ri-a, gra-*ci- a  ple-na  Do-mi-nus te-cum,*   Vir-* go se-re-na.
%

